Obsidian/places/16s/desktop-symbolic.svg

<svg height="16" width="16" xmlns="http://www.w3.org/2000/svg"><path d="m1 1c-.554 0-1 .446-1 1v12c0 .554.446 1 1 1h14c.554 0 1-.446 1-1v-12c0-.554-.446-1-1-1zm0 2h14v9h-14zm1 1v1h2v-1zm0 2v1h2v-1zm-1 7h2v1h-2zm11 0h1v1h-1zm2 0h1v1h-1z" fill="#bebebe"/></svg>

<?xml version="1.0" encoding="UTF-8" standalone="no"?>
<svg
   xmlns:dc="http://purl.org/dc/elements/1.1/"
   xmlns:cc="http://creativecommons.org/ns#"
   xmlns:rdf="http://www.w3.org/1999/02/22-rdf-syntax-ns#"
   xmlns:svg="http://www.w3.org/2000/svg"
   xmlns="http://www.w3.org/2000/svg"
   xmlns:sodipodi="http://sodipodi.sourceforge.net/DTD/sodipodi-0.dtd"
   xmlns:inkscape="http://www.inkscape.org/namespaces/inkscape"
   width="16"
   height="16"
   version="1.1"
   id="svg7"
   sodipodi:docname="desktop-symbolic.svg"
   inkscape:version="0.92.4 (unknown)">
  <metadata
     id="metadata11">
    <rdf:RDF>
      <cc:Work
         rdf:about="">
        <dc:format>image/svg+xml</dc:format>
        <dc:type
           rdf:resource="http://purl.org/dc/dcmitype/StillImage" />
        <dc:title />
      </cc:Work>
    </rdf:RDF>
  </metadata>
  <sodipodi:namedview
     pagecolor="#ffffff"
     bordercolor="#666666"
     borderopacity="1"
     objecttolerance="10"
     gridtolerance="10"
     guidetolerance="10"
     inkscape:pageopacity="0"
     inkscape:pageshadow="2"
     inkscape:window-width="1920"
     inkscape:window-height="1010"
     id="namedview9"
     showgrid="false"
     inkscape:zoom="20.85965"
     inkscape:cx="8.6922506"
     inkscape:cy="4.5803431"
     inkscape:window-x="0"
     inkscape:window-y="32"
     inkscape:window-maximized="1"
     inkscape:current-layer="svg7" />
  <defs
     id="defs3">
    <style
       id="current-color-scheme"
       type="text/css">
   .ColorScheme-Text { color:#5c616c; } .ColorScheme-Highlight { color:#5294e2; }
  </style>
  </defs>
  <path
     style="color:#5c616c;fill:#bebebe;fill-opacity:1"
     d="M 1 1 C 0.446 1 0 1.446 0 2 L 0 14 C 0 14.554 0.446 15 1 15 L 15 15 C 15.554 15 16 14.554 16 14 L 16 2 C 16 1.446 15.554 1 15 1 L 1 1 z M 1 3 L 15 3 L 15 12 L 1 12 L 1 3 z M 2 4 L 2 5 L 4 5 L 4 4 L 2 4 z M 2 6 L 2 7 L 4 7 L 4 6 L 2 6 z M 1 13 L 3 13 L 3 14 L 1 14 L 1 13 z M 12 13 L 13 13 L 13 14 L 12 14 L 12 13 z M 14 13 L 15 13 L 15 14 L 14 14 L 14 13 z "
     id="path5" />
</svg>
